X:1
T:Italienisches Konzert
T:Italienisches Konzert
T:Begleitung umgeschrieben für Kontrabass
T:J. S. Bach BWV971
C:J. S. Bach BWV971
L:1/8
M:3/4
K:F
V:1 bass nm="Piano" snm="Pno."
V:1
"^Andante" DD, D,D EF | GD, D,F ED | ^CD, D,E DC | DD, D,D EF | GD, D,F ED | ^CD, D,E DC | %6
 DD, D,G, F,E, | D,D, D,D CB, | CC, C,C B,A, | B,B,, B,,B, A,G, | A,A,, A,,A, =B,C | DD, D,D EF | %12
 GD, D,F ED | CC, C,C DE | FF, F,E DC | B,B,, B,,B, A,G, | A,A,, A,,A, G,F, | G,G,, G,,F, E,D, | %18
 C,C, C,C, D,E, | F,C, C,D, E,F, | G,C, C,E, F,G, | A,C, C,A, G,F, | G,C, C,G, F,E, | %23
 F,C, C,F, E,D, | E,D, D,E, F,C, | D,B,, F,E,/D,/ E,B, | A,F,, F,,G, F,E, | D,D, D,D EF | %28
 GD, D,F ED | ^CD, D,E DC | DD, D,D EF | GG,, G,,G, A,B, | CC, C,C DE | FF,, F,,F, G,A, | %34
 B,B,, B,,A, G,F, | E,E,, E,,D, ^C,=B,, | A,,A,, A,,A,, =B,,^C, | D,A,, A,,=B,, ^C,D, | %38
 E,A,, A,,^C, D,E, | F,A,, A,,F, E,D, | E,A,, A,,E, D,^C, | D,A,, A,,D, ^C,=B,, | %42
 ^C,A,, A,,C, D,A,, | B,,G,, D,^C,/=B,,/ C,G, | ^F,D, D,D, E,F, | G,D, D,F, E,D, | %46
 E,D, D,^C, D,E, | =B,,_B,, A,,^G,, A,,2 | D,2 z4 |] %49

